X: 1
T: the Duke of Gordon's Birthday
C: Marshall
R: strathspey
Z: 1997 by John Chambers <jc@trillian.mit.edu>
M: C
L: 1/8
K: G
|: B \
| "G"G>D G<B G>D G<B | d>B g>B "D7"A/A/A A>B \
| "G"G>D G<B G>D G<B | "D7"d>c B>A "G"G/G/G G :|
|: d \
| "G"g>a b>g "(D)"d/d/d d2 | "G"g>a b>g "C"e/e/e e>f \
| "G"g<b "C"e<g "G"d<g B<g | "D7"A>G A>B "G"G/G/G G :|

